data/stage3/conditioned_state/lightroom_sidecars_postmasking_no_local_adjustment/JB107504.xmp
<x:xmpmeta xmlns:x="adobe:ns:meta/" x:xmptk="Adobe XMP Core 7.0-c000 1.000000, 0000/00/00-00:00:00        ">
 <rdf:RDF xmlns:rdf="http://www.w3.org/1999/02/22-rdf-syntax-ns#">
  <rdf:Description rdf:about=""
    xmlns:tiff="http://ns.adobe.com/tiff/1.0/"
    xmlns:exif="http://ns.adobe.com/exif/1.0/"
    xmlns:xmp="http://ns.adobe.com/xap/1.0/"
    xmlns:aux="http://ns.adobe.com/exif/1.0/aux/"
    xmlns:exifEX="http://cipa.jp/exif/1.0/"
    xmlns:photoshop="http://ns.adobe.com/photoshop/1.0/"
    xmlns:xmpMM="http://ns.adobe.com/xap/1.0/mm/"
    xmlns:stEvt="http://ns.adobe.com/xap/1.0/sType/ResourceEvent#"
    xmlns:dc="http://purl.org/dc/elements/1.1/"
    xmlns:crd="http://ns.adobe.com/camera-raw-defaults/1.0/"
    xmlns:xmpRights="http://ns.adobe.com/xap/1.0/rights/"
    xmlns:xmpDM="http://ns.adobe.com/xmp/1.0/DynamicMedia/"
    xmlns:crs="http://ns.adobe.com/camera-raw-settings/1.0/"
    xmlns:Iptc4xmpCore="http://iptc.org/std/Iptc4xmpCore/1.0/xmlns/"
   tiff:Make="SONY"
   tiff:Model="ILCE-7RM3"
   tiff:Orientation="8"
   tiff:ImageWidth="7952"
   tiff:ImageLength="5304"
   exif:ExifVersion="0231"
   exif:ExposureTime="1/250"
   exif:ShutterSpeedValue="7965784/1000000"
   exif:FNumber="32/10"
   exif:ApertureValue="3356144/1000000"
   exif:ExposureProgram="1"
   exif:SensitivityType="2"
   exif:RecommendedExposureIndex="500"
   exif:BrightnessValue="17614/2560"
   exif:ExposureBiasValue="0/10"
   exif:MaxApertureValue="512/256"
   exif:MeteringMode="1"
   exif:LightSource="0"
   exif:FocalLength="350/10"
   exif:FileSource="3"
   exif:SceneType="1"
   exif:FocalLengthIn35mmFilm="35"
   exif:CustomRendered="0"
   exif:ExposureMode="1"
   exif:WhiteBalance="0"
   exif:SceneCaptureType="0"
   exif:Contrast="0"
   exif:Saturation="0"
   exif:Sharpness="0"
   exif:DigitalZoomRatio="16/16"
   exif:FocalPlaneXResolution="70924134/32768"
   exif:FocalPlaneYResolution="70924134/32768"
   exif:FocalPlaneResolutionUnit="3"
   exif:DateTimeOriginal="2024-12-15T16:32:25-08:00"
   exif:PixelXDimension="7952"
   exif:PixelYDimension="5304"
   xmp:CreatorTool="ILCE-7RM3 v3.10"
   xmp:ModifyDate="2024-12-15T16:32:25-08:00"
   xmp:CreateDate="2024-12-15T16:32:25-08:00"
   xmp:MetadataDate="2026-06-30T12:03:40-07:00"
   aux:LensInfo="350/10 1500/10 20/10 28/10"
   aux:Lens="E 35-150mm F2.0-F2.8 A058"
   aux:LensDistortInfo="32834/32768 -21720883/1073741824 -2550986/1073741824 22091530/1073741824"
   exifEX:LensModel="E 35-150mm F2.0-F2.8 A058"
   photoshop:DateCreated="2024-12-15T16:32:25-08:00"
   photoshop:AuthorsPosition="Photographer"
   photoshop:Credit="Photo © Julian Buccat"
   photoshop:SidecarForExtension="ARW"
   photoshop:EmbeddedXMPDigest="00000000000000000000000000000000"
   xmpMM:DocumentID="E351A43FCC5F2CBC3FEB1C92F36EFAE5"
   xmpMM:PreservedFileName="JB107504.ARW"
   xmpMM:OriginalDocumentID="E351A43FCC5F2CBC3FEB1C92F36EFAE5"
   xmpMM:InstanceID="xmp.iid:d950aaee-60c3-49e4-8bcb-02a819ac6297"
   dc:format="image/x-sony-arw"
   crd:CameraProfile="Camera Standard"
   crd:LookName=""
   xmpRights:Marked="True"
   xmpDM:pick="0"
   crs:Version="18.1"
   crs:CompatibleVersion="251854848"
   crs:ProcessVersion="15.4"
   crs:WhiteBalance="Custom"
   crs:Temperature="7750"
   crs:Tint="+12"
   crs:Exposure2012="-0.24"
   crs:Contrast2012="+4"
   crs:Highlights2012="-76"
   crs:Shadows2012="+52"
   crs:Whites2012="-1"
   crs:Blacks2012="-29"
   crs:Texture="0"
   crs:Clarity2012="0"
   crs:Dehaze="0"
   crs:Vibrance="+15"
   crs:Saturation="+2"
   crs:ParametricShadows="0"
   crs:ParametricDarks="0"
   crs:ParametricLights="0"
   crs:ParametricHighlights="0"
   crs:ParametricShadowSplit="25"
   crs:ParametricMidtoneSplit="50"
   crs:ParametricHighlightSplit="75"
   crs:Sharpness="40"
   crs:SharpenRadius="+1.0"
   crs:SharpenDetail="25"
   crs:SharpenEdgeMasking="0"
   crs:LuminanceSmoothing="0"
   crs:ColorNoiseReduction="25"
   crs:ColorNoiseReductionDetail="50"
   crs:ColorNoiseReductionSmoothness="50"
   crs:HueAdjustmentRed="0"
   crs:HueAdjustmentOrange="0"
   crs:HueAdjustmentYellow="0"
   crs:HueAdjustmentGreen="0"
   crs:HueAdjustmentAqua="0"
   crs:HueAdjustmentBlue="0"
   crs:HueAdjustmentPurple="0"
   crs:HueAdjustmentMagenta="0"
   crs:SaturationAdjustmentRed="0"
   crs:SaturationAdjustmentOrange="0"
   crs:SaturationAdjustmentYellow="-13"
   crs:SaturationAdjustmentGreen="-50"
   crs:SaturationAdjustmentAqua="0"
   crs:SaturationAdjustmentBlue="0"
   crs:SaturationAdjustmentPurple="0"
   crs:SaturationAdjustmentMagenta="0"
   crs:LuminanceAdjustmentRed="0"
   crs:LuminanceAdjustmentOrange="0"
   crs:LuminanceAdjustmentYellow="0"
   crs:LuminanceAdjustmentGreen="0"
   crs:LuminanceAdjustmentAqua="0"
   crs:LuminanceAdjustmentBlue="0"
   crs:LuminanceAdjustmentPurple="0"
   crs:LuminanceAdjustmentMagenta="0"
   crs:SplitToningShadowHue="0"
   crs:SplitToningShadowSaturation="0"
   crs:SplitToningHighlightHue="0"
   crs:SplitToningHighlightSaturation="0"
   crs:SplitToningBalance="0"
   crs:ColorGradeMidtoneHue="0"
   crs:ColorGradeMidtoneSat="0"
   crs:ColorGradeShadowLum="0"
   crs:ColorGradeMidtoneLum="0"
   crs:ColorGradeHighlightLum="0"
   crs:ColorGradeBlending="50"
   crs:ColorGradeGlobalHue="0"
   crs:ColorGradeGlobalSat="0"
   crs:ColorGradeGlobalLum="0"
   crs:AutoLateralCA="0"
   crs:LensProfileEnable="1"
   crs:LensManualDistortionAmount="0"
   crs:VignetteAmount="0"
   crs:DefringePurpleAmount="0"
   crs:DefringePurpleHueLo="30"
   crs:DefringePurpleHueHi="70"
   crs:DefringeGreenAmount="0"
   crs:DefringeGreenHueLo="40"
   crs:DefringeGreenHueHi="60"
   crs:PerspectiveUpright="0"
   crs:PerspectiveVertical="0"
   crs:PerspectiveHorizontal="0"
   crs:PerspectiveRotate="0.0"
   crs:PerspectiveAspect="0"
   crs:PerspectiveScale="100"
   crs:PerspectiveX="0.00"
   crs:PerspectiveY="0.00"
   crs:GrainAmount="0"
   crs:PostCropVignetteAmount="0"
   crs:ShadowTint="0"
   crs:RedHue="0"
   crs:RedSaturation="0"
   crs:GreenHue="0"
   crs:GreenSaturation="0"
   crs:BlueHue="0"
   crs:BlueSaturation="0"
   crs:HDREditMode="0"
   crs:OverrideLookVignette="False"
   crs:ToneCurveName2012="Linear"
   crs:CameraProfile="Adobe Standard"
   crs:CameraProfileDigest="5487194BEED499508DB3EF5E70573EB9"
   crs:LensProfileSetup="LensDefaults"
   crs:LensProfileName="Adobe (TAMRON 35-150mm F2-2.8 Di III VXD A058)"
   crs:LensProfileFilename="SONY (TAMRON 35-150mm F2-2.8 Di III VXD A058) - RAW.lcp"
   crs:LensProfileDigest="9101701948B53303FC4FDA54CE983A29"
   crs:LensProfileIsEmbedded="False"
   crs:LensProfileDistortionScale="100"
   crs:LensProfileVignettingScale="100"
   crs:AutoToneDigest="BD9A7AC612AA3069D7A54E0E29F50A7A"
   crs:AutoToneDigestNoSat="85CE2661279CAFA951F7428600867025"
   crs:HasSettings="True"
   crs:AlreadyApplied="False"
   crs:RawFileName="JB107504.ARW">
   <exif:ISOSpeedRatings>
    <rdf:Seq>
     <rdf:li>500</rdf:li>
    </rdf:Seq>
   </exif:ISOSpeedRatings>
   <exif:Flash
    exif:Fired="False"
    exif:Return="0"
    exif:Mode="2"
    exif:Function="False"
    exif:RedEyeMode="False"/>
   <xmpMM:History>
    <rdf:Seq>
     <rdf:li
      stEvt:action="saved"
      stEvt:instanceID="xmp.iid:d950aaee-60c3-49e4-8bcb-02a819ac6297"
      stEvt:when="2026-06-30T12:03:40-07:00"
      stEvt:softwareAgent="Adobe Photoshop Lightroom Classic 15.1 (Macintosh)"
      stEvt:changed="/metadata"/>
    </rdf:Seq>
   </xmpMM:History>
   <dc:creator>
    <rdf:Seq>
     <rdf:li>Julian Buccat</rdf:li>
    </rdf:Seq>
   </dc:creator>
   <dc:rights>
    <rdf:Alt>
     <rdf:li xml:lang="x-default">© 2026 Julian Buccat. All Rights.</rdf:li>
    </rdf:Alt>
   </dc:rights>
   <xmpRights:UsageTerms>
    <rdf:Alt>
     <rdf:li xml:lang="x-default">All rights reserved unless otherwise licensed. </rdf:li>
    </rdf:Alt>
   </xmpRights:UsageTerms>
   <crs:ToneCurvePV2012>
    <rdf:Seq>
     <rdf:li>0, 0</rdf:li>
     <rdf:li>255, 255</rdf:li>
    </rdf:Seq>
   </crs:ToneCurvePV2012>
   <crs:ToneCurvePV2012Red>
    <rdf:Seq>
     <rdf:li>0, 0</rdf:li>
     <rdf:li>255, 255</rdf:li>
    </rdf:Seq>
   </crs:ToneCurvePV2012Red>
   <crs:ToneCurvePV2012Green>
    <rdf:Seq>
     <rdf:li>0, 0</rdf:li>
     <rdf:li>255, 255</rdf:li>
    </rdf:Seq>
   </crs:ToneCurvePV2012Green>
   <crs:ToneCurvePV2012Blue>
    <rdf:Seq>
     <rdf:li>0, 0</rdf:li>
     <rdf:li>255, 255</rdf:li>
    </rdf:Seq>
   </crs:ToneCurvePV2012Blue>
   <crs:PointColors>
    <rdf:Seq>
     <rdf:li>-1.000000, -1.000000, -1.000000, -1.000000, -1.000000, -1.000000, -1.000000, -1.000000, -1.000000, -1.000000, -1.000000, -1.000000, -1.000000, -1.000000, -1.000000, -1.000000, -1.000000, -1.000000, -1.000000</rdf:li>
    </rdf:Seq>
   </crs:PointColors>
   <crs:ColorVariance>
    <rdf:Seq>
     <rdf:li>-50.000000</rdf:li>
    </rdf:Seq>
   </crs:ColorVariance>
   <crs:MaskGroupBasedCorrections>
    <rdf:Seq>
     <rdf:li>
      <rdf:Description
       crs:What="Correction"
       crs:CorrectionAmount="1"
       crs:CorrectionActive="true"
       crs:CorrectionName="Mask 1"
       crs:CorrectionSyncID="365FC08EAD254EA59B7B36B59804C54D"
       crs:LocalExposure="0"
       crs:LocalHue="0"
       crs:LocalSaturation="0"
       crs:LocalContrast="0"
       crs:LocalClarity="0"
       crs:LocalSharpness="0"
       crs:LocalBrightness="0"
       crs:LocalToningHue="173.945007"
       crs:LocalToningSaturation="0"
       crs:LocalExposure2012="0"
       crs:LocalContrast2012="0"
       crs:LocalHighlights2012="0"
       crs:LocalShadows2012="0"
       crs:LocalWhites2012="0"
       crs:LocalBlacks2012="0"
       crs:LocalClarity2012="0"
       crs:LocalDehaze="0"
       crs:LocalLuminanceNoise="0"
       crs:LocalMoire="0"
       crs:LocalDefringe="0"
       crs:LocalTemperature="0"
       crs:LocalTint="0"
       crs:LocalTexture="0.01"
       crs:LocalGrain="0"
       crs:LocalCurveRefineSaturation="100">
      <crs:CorrectionMasks>
       <rdf:Seq>
        <rdf:li
         crs:What="Mask/Image"
         crs:MaskActive="true"
         crs:MaskName="Person 1"
         crs:MaskBlendMode="0"
         crs:MaskInverted="false"
         crs:MaskSyncID="D784D255908443549EFE3A62C182B80B"
         crs:MaskValue="1"
         crs:MaskVersion="1"
         crs:MaskSubType="0"
         crs:MaskSubCategoryID="20036"
         crs:ReferencePoint="0.367469 0.464985"
         crs:InputDigest="C581ACE40A9F9977C0BD92E8158B54C9"
         crs:InputDigestVersion="2"
         crs:LocalInputDigest="0F69EC7191721A5DAEB9846B118CC3B4"
         crs:LocalInputDigestVersion="1"
         crs:MaskDigest="C7B9E2F675E64BE0FEF2550AD479C368"
         crs:WholeImageArea="0/1,0/1,1920/1,2879/1"
         crs:Origin="0,152"
         crs:FullMaskSize="2879,1920"
         crs:ModelVersion="234881976"/>
       </rdf:Seq>
      </crs:CorrectionMasks>
      </rdf:Description>
     </rdf:li>
     <rdf:li>
      <rdf:Description
       crs:What="Correction"
       crs:CorrectionAmount="1"
       crs:CorrectionActive="true"
       crs:CorrectionName="Mask 2"
       crs:CorrectionSyncID="851EBD3FC5A4440696D472C3AEF5BD3B"
       crs:LocalExposure="0"
       crs:LocalHue="0"
       crs:LocalSaturation="0"
       crs:LocalContrast="0"
       crs:LocalClarity="0"
       crs:LocalSharpness="0"
       crs:LocalBrightness="0"
       crs:LocalToningHue="173.945007"
       crs:LocalToningSaturation="0"
       crs:LocalExposure2012="0"
       crs:LocalContrast2012="0"
       crs:LocalHighlights2012="0"
       crs:LocalShadows2012="0"
       crs:LocalWhites2012="0"
       crs:LocalBlacks2012="0"
       crs:LocalClarity2012="0"
       crs:LocalDehaze="0"
       crs:LocalLuminanceNoise="0"
       crs:LocalMoire="0"
       crs:LocalDefringe="0"
       crs:LocalTemperature="0"
       crs:LocalTint="0"
       crs:LocalTexture="0.01"
       crs:LocalGrain="0"
       crs:LocalCurveRefineSaturation="100">
      <crs:CorrectionMasks>
       <rdf:Seq>
        <rdf:li
         crs:What="Mask/Image"
         crs:MaskActive="true"
         crs:MaskName="Background 1"
         crs:MaskBlendMode="0"
         crs:MaskInverted="false"
         crs:MaskSyncID="CAEFE61A5B794CABA2B921C939E7BA2C"
         crs:MaskValue="1"
         crs:MaskVersion="1"
         crs:MaskSubType="0"
         crs:MaskSubCategoryID="22"
         crs:ReferencePoint="0.850451 0.221745"
         crs:InputDigest="C581ACE40A9F9977C0BD92E8158B54C9"
         crs:InputDigestVersion="2"
         crs:MaskDigest="31E6F4D9F1631B3DD0465C498FD59E7A"
         crs:WholeImageArea="0/1073741824,0/1073741824,62914560/32768,94339072/32768"
         crs:Origin="0,0"
         crs:FullMaskSize="2879,1920"
         crs:ModelVersion="251659306"/>
       </rdf:Seq>
      </crs:CorrectionMasks>
      </rdf:Description>
     </rdf:li>
     <rdf:li>
      <rdf:Description
       crs:What="Correction"
       crs:CorrectionAmount="1"
       crs:CorrectionActive="true"
       crs:CorrectionName="Mask 3"
       crs:CorrectionSyncID="484A6CB346C1406FABD933990077F786"
       crs:LocalExposure="0"
       crs:LocalHue="0"
       crs:LocalSaturation="0"
       crs:LocalContrast="0"
       crs:LocalClarity="0"
       crs:LocalSharpness="0"
       crs:LocalBrightness="0"
       crs:LocalToningHue="173.945007"
       crs:LocalToningSaturation="0"
       crs:LocalExposure2012="0"
       crs:LocalContrast2012="0"
       crs:LocalHighlights2012="0"
       crs:LocalShadows2012="0"
       crs:LocalWhites2012="0"
       crs:LocalBlacks2012="0"
       crs:LocalClarity2012="0"
       crs:LocalDehaze="0"
       crs:LocalLuminanceNoise="0"
       crs:LocalMoire="0"
       crs:LocalDefringe="0"
       crs:LocalTemperature="0"
       crs:LocalTint="0"
       crs:LocalTexture="0.01"
       crs:LocalGrain="0"
       crs:LocalCurveRefineSaturation="100">
      <crs:CorrectionMasks>
       <rdf:Seq>
        <rdf:li
         crs:What="Mask/Image"
         crs:MaskActive="true"
         crs:MaskName="Person 1 - Clothes"
         crs:MaskBlendMode="0"
         crs:MaskInverted="false"
         crs:MaskSyncID="BBFBF9C95DA54B109A580C8644C279F9"
         crs:MaskValue="1"
         crs:MaskVersion="1"
         crs:MaskSubType="0"
         crs:MaskSubCategoryID="11"
         crs:ReferencePoint="0.197591 0.262015"
         crs:InputDigest="C581ACE40A9F9977C0BD92E8158B54C9"
         crs:InputDigestVersion="2"
         crs:LocalInputDigest="0F69EC7191721A5DAEB9846B118CC3B4"
         crs:LocalInputDigestVersion="1"
         crs:MaskDigest="9F8B79E0C8BED403CB3EED5BD8C5A1CD"
         crs:WholeImageArea="0/1,0/1,1920/1,2879/1"
         crs:Origin="0,155"
         crs:FullMaskSize="2879,1920"
         crs:ModelVersion="234881976"/>
       </rdf:Seq>
      </crs:CorrectionMasks>
      </rdf:Description>
     </rdf:li>
     <rdf:li>
      <rdf:Description
       crs:What="Correction"
       crs:CorrectionAmount="1"
       crs:CorrectionActive="true"
       crs:CorrectionName="Mask 4"
       crs:CorrectionSyncID="05D4854D165E4729A16D871D63276E37"
       crs:LocalExposure="0"
       crs:LocalHue="0"
       crs:LocalSaturation="0"
       crs:LocalContrast="0"
       crs:LocalClarity="0"
       crs:LocalSharpness="0"
       crs:LocalBrightness="0"
       crs:LocalToningHue="173.945007"
       crs:LocalToningSaturation="0"
       crs:LocalExposure2012="0"
       crs:LocalContrast2012="0"
       crs:LocalHighlights2012="0"
       crs:LocalShadows2012="0"
       crs:LocalWhites2012="0"
       crs:LocalBlacks2012="0"
       crs:LocalClarity2012="0"
       crs:LocalDehaze="0"
       crs:LocalLuminanceNoise="0"
       crs:LocalMoire="0"
       crs:LocalDefringe="0"
       crs:LocalTemperature="0"
       crs:LocalTint="0"
       crs:LocalTexture="0.01"
       crs:LocalGrain="0"
       crs:LocalCurveRefineSaturation="100">
      <crs:CorrectionMasks>
       <rdf:Seq>
        <rdf:li
         crs:What="Mask/Image"
         crs:MaskActive="true"
         crs:MaskName="Person 1 - Body Skin"
         crs:MaskBlendMode="0"
         crs:MaskInverted="false"
         crs:MaskSyncID="ECE0C615957A4E6D8F5CF240421D4F4E"
         crs:MaskValue="1"
         crs:MaskVersion="1"
         crs:MaskSubType="0"
         crs:MaskSubCategoryID="4"
         crs:ReferencePoint="0.554627 0.537968"
         crs:InputDigest="C581ACE40A9F9977C0BD92E8158B54C9"
         crs:InputDigestVersion="2"
         crs:LocalInputDigest="0F69EC7191721A5DAEB9846B118CC3B4"
         crs:LocalInputDigestVersion="1"
         crs:MaskDigest="0E63801FA7C9139FDBCCBDD6E1033AEB"
         crs:WholeImageArea="0/1,0/1,1920/1,2879/1"
         crs:Origin="649,746"
         crs:FullMaskSize="2879,1920"
         crs:ModelVersion="234881976"/>
       </rdf:Seq>
      </crs:CorrectionMasks>
      </rdf:Description>
     </rdf:li>
     <rdf:li>
      <rdf:Description
       crs:What="Correction"
       crs:CorrectionAmount="1"
       crs:CorrectionActive="true"
       crs:CorrectionName="Mask 5"
       crs:CorrectionSyncID="42A23F92EECB4715A592806E768345DF"
       crs:LocalExposure="0"
       crs:LocalHue="0"
       crs:LocalSaturation="0"
       crs:LocalContrast="0"
       crs:LocalClarity="0"
       crs:LocalSharpness="0"
       crs:LocalBrightness="0"
       crs:LocalToningHue="173.945007"
       crs:LocalToningSaturation="0"
       crs:LocalExposure2012="0"
       crs:LocalContrast2012="0"
       crs:LocalHighlights2012="0"
       crs:LocalShadows2012="0"
       crs:LocalWhites2012="0"
       crs:LocalBlacks2012="0"
       crs:LocalClarity2012="0"
       crs:LocalDehaze="0"
       crs:LocalLuminanceNoise="0"
       crs:LocalMoire="0"
       crs:LocalDefringe="0"
       crs:LocalTemperature="0"
       crs:LocalTint="0"
       crs:LocalTexture="0.01"
       crs:LocalGrain="0"
       crs:LocalCurveRefineSaturation="100">
      <crs:CorrectionMasks>
       <rdf:Seq>
        <rdf:li
         crs:What="Mask/Image"
         crs:MaskActive="true"
         crs:MaskName="Person 1 - Facial Skin"
         crs:MaskBlendMode="0"
         crs:MaskInverted="false"
         crs:MaskSyncID="48A9280393504303B9E2C77F8B4BDEE1"
         crs:MaskValue="1"
         crs:MaskVersion="1"
         crs:MaskSubType="0"
         crs:MaskSubCategoryID="2"
         crs:ReferencePoint="0.646158 0.462074"
         crs:InputDigest="C581ACE40A9F9977C0BD92E8158B54C9"
         crs:InputDigestVersion="2"
         crs:LocalInputDigest="0F69EC7191721A5DAEB9846B118CC3B4"
         crs:LocalInputDigestVersion="1"
         crs:MaskDigest="383FEBFAB193429358489C8008BD9E40"
         crs:WholeImageArea="0/1,0/1,1920/1,2879/1"
         crs:Origin="1612,717"
         crs:FullMaskSize="2879,1920"
         crs:ModelVersion="234881976"/>
       </rdf:Seq>
      </crs:CorrectionMasks>
      </rdf:Description>
     </rdf:li>
     <rdf:li>
      <rdf:Description
       crs:What="Correction"
       crs:CorrectionAmount="1"
       crs:CorrectionActive="true"
       crs:CorrectionName="Mask 6"
       crs:CorrectionSyncID="AE937AF217644B6CB2D4F5AEDA592E11"
       crs:LocalExposure="0"
       crs:LocalHue="0"
       crs:LocalSaturation="0"
       crs:LocalContrast="0"
       crs:LocalClarity="0"
       crs:LocalSharpness="0"
       crs:LocalBrightness="0"
       crs:LocalToningHue="173.945007"
       crs:LocalToningSaturation="0"
       crs:LocalExposure2012="0"
       crs:LocalContrast2012="0"
       crs:LocalHighlights2012="0"
       crs:LocalShadows2012="0"
       crs:LocalWhites2012="0"
       crs:LocalBlacks2012="0"
       crs:LocalClarity2012="0"
       crs:LocalDehaze="0"
       crs:LocalLuminanceNoise="0"
       crs:LocalMoire="0"
       crs:LocalDefringe="0"
       crs:LocalTemperature="0"
       crs:LocalTint="0"
       crs:LocalTexture="0.01"
       crs:LocalGrain="0"
       crs:LocalCurveRefineSaturation="100">
      <crs:CorrectionMasks>
       <rdf:Seq>
        <rdf:li
         crs:What="Mask/Image"
         crs:MaskActive="true"
         crs:MaskName="Person 1 - Teeth"
         crs:MaskBlendMode="0"
         crs:MaskInverted="false"
         crs:MaskSyncID="99BEAB389EDD4930A611668CB75E8312"
         crs:MaskValue="1"
         crs:MaskVersion="1"
         crs:MaskSubType="0"
         crs:MaskSubCategoryID="12"
         crs:ReferencePoint="0.500000 0.500000"
         crs:InputDigest="C581ACE40A9F9977C0BD92E8158B54C9"
         crs:InputDigestVersion="2"
         crs:ErrorReason="1"
         crs:ModelVersion="234881976"/>
        <rdf:li
         crs:What="Mask/Image"
         crs:MaskActive="true"
         crs:MaskName="Person 1 - Eye Sclera"
         crs:MaskBlendMode="0"
         crs:MaskInverted="false"
         crs:MaskSyncID="FF391CA859A14155BBF2D728B637144F"
         crs:MaskValue="1"
         crs:MaskVersion="1"
         crs:MaskSubType="0"
         crs:MaskSubCategoryID="8"
         crs:ReferencePoint="0.671392 0.572891"
         crs:InputDigest="C581ACE40A9F9977C0BD92E8158B54C9"
         crs:InputDigestVersion="2"
         crs:LocalInputDigest="0F69EC7191721A5DAEB9846B118CC3B4"
         crs:LocalInputDigestVersion="1"
         crs:MaskDigest="D02865B722554588BAB24D5B6F9F3337"
         crs:WholeImageArea="0/1,0/1,1920/1,2879/1"
         crs:Origin="1918,890"
         crs:FullMaskSize="2879,1920"
         crs:ModelVersion="234881976"/>
       </rdf:Seq>
      </crs:CorrectionMasks>
      </rdf:Description>
     </rdf:li>
    </rdf:Seq>
   </crs:MaskGroupBasedCorrections>
   <crs:Look>
    <rdf:Description
     crs:Name="Adobe Color"
     crs:Amount="1"
     crs:UUID="B952C231111CD8E0ECCF14B86BAA7077"
     crs:SupportsAmount="false"
     crs:SupportsMonochrome="false"
     crs:SupportsOutputReferred="false"
     crs:Copyright="© 2018 Adobe Systems, Inc.">
    <crs:Group>
     <rdf:Alt>
      <rdf:li xml:lang="x-default">Profiles</rdf:li>
     </rdf:Alt>
    </crs:Group>
    <crs:Parameters>
     <rdf:Description
      crs:Version="18.1"
      crs:ProcessVersion="15.4"
      crs:ConvertToGrayscale="False"
      crs:CameraProfile="Adobe Standard"
      crs:LookTable="E1095149FDB39D7A057BAB208837E2E1">
     <crs:ToneCurvePV2012>
      <rdf:Seq>
       <rdf:li>0, 0</rdf:li>
       <rdf:li>22, 16</rdf:li>
       <rdf:li>40, 35</rdf:li>
       <rdf:li>127, 127</rdf:li>
       <rdf:li>224, 230</rdf:li>
       <rdf:li>240, 246</rdf:li>
       <rdf:li>255, 255</rdf:li>
      </rdf:Seq>
     </crs:ToneCurvePV2012>
     <crs:ToneCurvePV2012Red>
      <rdf:Seq>
       <rdf:li>0, 0</rdf:li>
       <rdf:li>255, 255</rdf:li>
      </rdf:Seq>
     </crs:ToneCurvePV2012Red>
     <crs:ToneCurvePV2012Green>
      <rdf:Seq>
       <rdf:li>0, 0</rdf:li>
       <rdf:li>255, 255</rdf:li>
      </rdf:Seq>
     </crs:ToneCurvePV2012Green>
     <crs:ToneCurvePV2012Blue>
      <rdf:Seq>
       <rdf:li>0, 0</rdf:li>
       <rdf:li>255, 255</rdf:li>
      </rdf:Seq>
     </crs:ToneCurvePV2012Blue>
     <crs:PointColors>
      <rdf:Seq>
       <rdf:li>-1.000000, -1.000000, -1.000000, -1.000000, -1.000000, -1.000000, -1.000000, -1.000000, -1.000000, -1.000000, -1.000000, -1.000000, -1.000000, -1.000000, -1.000000, -1.000000, -1.000000, -1.000000, -1.000000</rdf:li>
      </rdf:Seq>
     </crs:PointColors>
     <crs:ColorVariance>
      <rdf:Seq>
       <rdf:li>-50.000000</rdf:li>
      </rdf:Seq>
     </crs:ColorVariance>
     </rdf:Description>
    </crs:Parameters>
    </rdf:Description>
   </crs:Look>
   <Iptc4xmpCore:CreatorContactInfo
    Iptc4xmpCore:CiEmailWork="julianbuccatphotography@gmail.com"
    Iptc4xmpCore:CiAdrCtry="USA"
    Iptc4xmpCore:CiUrlWork="https://buccatjulian.myportfolio.com"/>
  </rdf:Description>
 </rdf:RDF>
</x:xmpmeta>
