data/stage2/conditioned_state/xmp_postconditioning/JB107510.xmp
<x:xmpmeta xmlns:x="adobe:ns:meta/" x:xmptk="Adobe XMP Core 7.0-c000 1.000000, 0000/00/00-00:00:00        ">
 <rdf:RDF xmlns:rdf="http://www.w3.org/1999/02/22-rdf-syntax-ns#">
  <rdf:Description rdf:about=""
    xmlns:tiff="http://ns.adobe.com/tiff/1.0/"
    xmlns:exif="http://ns.adobe.com/exif/1.0/"
    xmlns:xmp="http://ns.adobe.com/xap/1.0/"
    xmlns:aux="http://ns.adobe.com/exif/1.0/aux/"
    xmlns:exifEX="http://cipa.jp/exif/1.0/"
    xmlns:photoshop="http://ns.adobe.com/photoshop/1.0/"
    xmlns:xmpMM="http://ns.adobe.com/xap/1.0/mm/"
    xmlns:stEvt="http://ns.adobe.com/xap/1.0/sType/ResourceEvent#"
    xmlns:dc="http://purl.org/dc/elements/1.1/"
    xmlns:crd="http://ns.adobe.com/camera-raw-defaults/1.0/"
    xmlns:xmpRights="http://ns.adobe.com/xap/1.0/rights/"
    xmlns:xmpDM="http://ns.adobe.com/xmp/1.0/DynamicMedia/"
    xmlns:crs="http://ns.adobe.com/camera-raw-settings/1.0/"
    xmlns:Iptc4xmpCore="http://iptc.org/std/Iptc4xmpCore/1.0/xmlns/"
   tiff:Make="SONY"
   tiff:Model="ILCE-7RM3"
   tiff:Orientation="8"
   tiff:ImageWidth="7952"
   tiff:ImageLength="5304"
   exif:ExifVersion="0231"
   exif:ExposureTime="1/500"
   exif:ShutterSpeedValue="8965784/1000000"
   exif:FNumber="22/10"
   exif:ApertureValue="2275007/1000000"
   exif:ExposureProgram="1"
   exif:SensitivityType="2"
   exif:RecommendedExposureIndex="160"
   exif:BrightnessValue="19344/2560"
   exif:ExposureBiasValue="0/10"
   exif:MaxApertureValue="582/256"
   exif:MeteringMode="1"
   exif:LightSource="0"
   exif:FocalLength="420/10"
   exif:FileSource="3"
   exif:SceneType="1"
   exif:FocalLengthIn35mmFilm="42"
   exif:CustomRendered="0"
   exif:ExposureMode="1"
   exif:WhiteBalance="0"
   exif:SceneCaptureType="0"
   exif:Contrast="0"
   exif:Saturation="0"
   exif:Sharpness="0"
   exif:DigitalZoomRatio="16/16"
   exif:FocalPlaneXResolution="70924134/32768"
   exif:FocalPlaneYResolution="70924134/32768"
   exif:FocalPlaneResolutionUnit="3"
   exif:DateTimeOriginal="2024-06-15T15:26:23-08:00"
   exif:PixelXDimension="7952"
   exif:PixelYDimension="5304"
   xmp:CreatorTool="ILCE-7RM3 v3.10"
   xmp:ModifyDate="2024-06-15T15:26:23-08:00"
   xmp:CreateDate="2024-06-15T15:26:23-08:00"
   xmp:MetadataDate="2026-06-29T15:45:06-07:00"
   aux:LensInfo="350/10 1500/10 20/10 28/10"
   aux:Lens="E 35-150mm F2.0-F2.8 A058"
   aux:LensDistortInfo="1051586556/1073741824 5572407/1073741824 -695524/1073741824 17267104/1073741824"
   exifEX:LensModel="E 35-150mm F2.0-F2.8 A058"
   photoshop:DateCreated="2024-06-15T15:26:23-08:00"
   photoshop:AuthorsPosition="Photographer"
   photoshop:Credit="Photo © Julian Buccat"
   photoshop:Category="Graduation"
   photoshop:Headline="Graduation Photos - High School"
   photoshop:SidecarForExtension="ARW"
   photoshop:EmbeddedXMPDigest="00000000000000000000000000000000"
   xmpMM:DocumentID="2ACD1DF651D4668849898F253160F991"
   xmpMM:PreservedFileName="JB107510.ARW"
   xmpMM:OriginalDocumentID="2ACD1DF651D4668849898F253160F991"
   xmpMM:InstanceID="xmp.iid:a5f925ae-505f-4b94-b316-4e6c338ec8bb"
   dc:format="image/x-sony-arw"
   crd:CameraProfile="Camera Standard"
   crd:LookName=""
   xmpRights:Marked="True"
   xmpDM:pick="0"
   crs:Version="18.1"
   crs:ProcessVersion="15.4"
   crs:WhiteBalance="Custom"
   crs:Temperature="4850"
   crs:Tint="+45"
   crs:Exposure2012="-0.28"
   crs:Contrast2012="+7"
   crs:Highlights2012="-71"
   crs:Shadows2012="+84"
   crs:Whites2012="+5"
   crs:Blacks2012="-15"
   crs:Texture="0"
   crs:Clarity2012="0"
   crs:Dehaze="0"
   crs:Vibrance="+11"
   crs:Saturation="-2"
   crs:ParametricShadows="0"
   crs:ParametricDarks="0"
   crs:ParametricLights="0"
   crs:ParametricHighlights="0"
   crs:ParametricShadowSplit="25"
   crs:ParametricMidtoneSplit="50"
   crs:ParametricHighlightSplit="75"
   crs:Sharpness="40"
   crs:SharpenRadius="+1.0"
   crs:SharpenDetail="25"
   crs:SharpenEdgeMasking="0"
   crs:LuminanceSmoothing="0"
   crs:ColorNoiseReduction="25"
   crs:ColorNoiseReductionDetail="50"
   crs:ColorNoiseReductionSmoothness="50"
   crs:HueAdjustmentRed="0"
   crs:HueAdjustmentOrange="0"
   crs:HueAdjustmentYellow="0"
   crs:HueAdjustmentGreen="0"
   crs:HueAdjustmentAqua="0"
   crs:HueAdjustmentBlue="0"
   crs:HueAdjustmentPurple="0"
   crs:HueAdjustmentMagenta="0"
   crs:SaturationAdjustmentRed="0"
   crs:SaturationAdjustmentOrange="0"
   crs:SaturationAdjustmentYellow="0"
   crs:SaturationAdjustmentGreen="-34"
   crs:SaturationAdjustmentAqua="0"
   crs:SaturationAdjustmentBlue="0"
   crs:SaturationAdjustmentPurple="0"
   crs:SaturationAdjustmentMagenta="0"
   crs:LuminanceAdjustmentRed="0"
   crs:LuminanceAdjustmentOrange="0"
   crs:LuminanceAdjustmentYellow="0"
   crs:LuminanceAdjustmentGreen="0"
   crs:LuminanceAdjustmentAqua="0"
   crs:LuminanceAdjustmentBlue="0"
   crs:LuminanceAdjustmentPurple="0"
   crs:LuminanceAdjustmentMagenta="0"
   crs:SplitToningShadowHue="0"
   crs:SplitToningShadowSaturation="0"
   crs:SplitToningHighlightHue="0"
   crs:SplitToningHighlightSaturation="0"
   crs:SplitToningBalance="0"
   crs:ColorGradeMidtoneHue="0"
   crs:ColorGradeMidtoneSat="0"
   crs:ColorGradeShadowLum="0"
   crs:ColorGradeMidtoneLum="0"
   crs:ColorGradeHighlightLum="0"
   crs:ColorGradeBlending="50"
   crs:ColorGradeGlobalHue="0"
   crs:ColorGradeGlobalSat="0"
   crs:ColorGradeGlobalLum="0"
   crs:AutoLateralCA="0"
   crs:LensProfileEnable="1"
   crs:LensManualDistortionAmount="0"
   crs:VignetteAmount="0"
   crs:DefringePurpleAmount="0"
   crs:DefringePurpleHueLo="30"
   crs:DefringePurpleHueHi="70"
   crs:DefringeGreenAmount="0"
   crs:DefringeGreenHueLo="40"
   crs:DefringeGreenHueHi="60"
   crs:PerspectiveUpright="0"
   crs:PerspectiveVertical="0"
   crs:PerspectiveHorizontal="0"
   crs:PerspectiveRotate="0.0"
   crs:PerspectiveAspect="0"
   crs:PerspectiveScale="100"
   crs:PerspectiveX="0.00"
   crs:PerspectiveY="0.00"
   crs:GrainAmount="0"
   crs:PostCropVignetteAmount="0"
   crs:ShadowTint="0"
   crs:RedHue="0"
   crs:RedSaturation="0"
   crs:GreenHue="0"
   crs:GreenSaturation="0"
   crs:BlueHue="0"
   crs:BlueSaturation="0"
   crs:HDREditMode="0"
   crs:OverrideLookVignette="False"
   crs:ToneCurveName2012="Linear"
   crs:CameraProfile="Adobe Standard"
   crs:CameraProfileDigest="5487194BEED499508DB3EF5E70573EB9"
   crs:LensProfileSetup="LensDefaults"
   crs:LensProfileName="Adobe (TAMRON 35-150mm F2-2.8 Di III VXD A058)"
   crs:LensProfileFilename="SONY (TAMRON 35-150mm F2-2.8 Di III VXD A058) - RAW.lcp"
   crs:LensProfileDigest="9101701948B53303FC4FDA54CE983A29"
   crs:LensProfileIsEmbedded="False"
   crs:LensProfileDistortionScale="100"
   crs:LensProfileVignettingScale="100"
   crs:AutoToneDigest="1EBC5CEA24286DD2B8722DCF6CC4CB13"
   crs:AutoToneDigestNoSat="F7167C504EEF79A720A9C2D1B53709C8"
   crs:HasSettings="True"
   crs:CropTop="0.1085"
   crs:CropLeft="0.000001"
   crs:CropBottom="0.8915"
   crs:CropRight="0.783001"
   crs:CropAngle="0"
   crs:CropConstrainToWarp="0"
   crs:CropConstrainToUnitSquare="1"
   crs:HasCrop="True"
   crs:AlreadyApplied="False"
   crs:RawFileName="JB107510.ARW">
   <exif:ISOSpeedRatings>
    <rdf:Seq>
     <rdf:li>160</rdf:li>
    </rdf:Seq>
   </exif:ISOSpeedRatings>
   <exif:Flash
    exif:Fired="False"
    exif:Return="0"
    exif:Mode="2"
    exif:Function="False"
    exif:RedEyeMode="False"/>
   <exif:UserComment>
    <rdf:Alt>
     <rdf:li xml:lang="x-repair">Northern California Graduation Photoshoot </rdf:li>
    </rdf:Alt>
   </exif:UserComment>
   <xmpMM:History>
    <rdf:Seq>
     <rdf:li
      stEvt:action="saved"
      stEvt:instanceID="xmp.iid:a5f925ae-505f-4b94-b316-4e6c338ec8bb"
      stEvt:when="2026-06-29T15:45:06-07:00"
      stEvt:softwareAgent="Adobe Photoshop Lightroom Classic 15.1 (Macintosh)"
      stEvt:changed="/metadata"/>
    </rdf:Seq>
   </xmpMM:History>
   <dc:creator>
    <rdf:Seq>
     <rdf:li>Julian Buccat</rdf:li>
    </rdf:Seq>
   </dc:creator>
   <dc:rights>
    <rdf:Alt>
     <rdf:li xml:lang="x-default">© 2026 Julian Buccat. All Rights.</rdf:li>
    </rdf:Alt>
   </dc:rights>
   <dc:description>
    <rdf:Alt>
     <rdf:li xml:lang="x-default">High School Graduation Portraits</rdf:li>
    </rdf:Alt>
   </dc:description>
   <xmpRights:UsageTerms>
    <rdf:Alt>
     <rdf:li xml:lang="x-default">All rights reserved unless otherwise licensed. </rdf:li>
    </rdf:Alt>
   </xmpRights:UsageTerms>
   <crs:ToneCurvePV2012>
    <rdf:Seq>
     <rdf:li>0, 0</rdf:li>
     <rdf:li>255, 255</rdf:li>
    </rdf:Seq>
   </crs:ToneCurvePV2012>
   <crs:ToneCurvePV2012Red>
    <rdf:Seq>
     <rdf:li>0, 0</rdf:li>
     <rdf:li>255, 255</rdf:li>
    </rdf:Seq>
   </crs:ToneCurvePV2012Red>
   <crs:ToneCurvePV2012Green>
    <rdf:Seq>
     <rdf:li>0, 0</rdf:li>
     <rdf:li>255, 255</rdf:li>
    </rdf:Seq>
   </crs:ToneCurvePV2012Green>
   <crs:ToneCurvePV2012Blue>
    <rdf:Seq>
     <rdf:li>0, 0</rdf:li>
     <rdf:li>255, 255</rdf:li>
    </rdf:Seq>
   </crs:ToneCurvePV2012Blue>
   <crs:PointColors>
    <rdf:Seq>
     <rdf:li>-1.000000, -1.000000, -1.000000, -1.000000, -1.000000, -1.000000, -1.000000, -1.000000, -1.000000, -1.000000, -1.000000, -1.000000, -1.000000, -1.000000, -1.000000, -1.000000, -1.000000, -1.000000, -1.000000</rdf:li>
    </rdf:Seq>
   </crs:PointColors>
   <crs:ColorVariance>
    <rdf:Seq>
     <rdf:li>-50.000000</rdf:li>
    </rdf:Seq>
   </crs:ColorVariance>
   <crs:Look>
    <rdf:Description
     crs:Name="Adobe Color"
     crs:Amount="1"
     crs:UUID="B952C231111CD8E0ECCF14B86BAA7077"
     crs:SupportsAmount="false"
     crs:SupportsMonochrome="false"
     crs:SupportsOutputReferred="false"
     crs:Copyright="© 2018 Adobe Systems, Inc.">
    <crs:Group>
     <rdf:Alt>
      <rdf:li xml:lang="x-default">Profiles</rdf:li>
     </rdf:Alt>
    </crs:Group>
    <crs:Parameters>
     <rdf:Description
      crs:Version="18.1"
      crs:ProcessVersion="15.4"
      crs:ConvertToGrayscale="False"
      crs:CameraProfile="Adobe Standard"
      crs:LookTable="E1095149FDB39D7A057BAB208837E2E1">
     <crs:ToneCurvePV2012>
      <rdf:Seq>
       <rdf:li>0, 0</rdf:li>
       <rdf:li>22, 16</rdf:li>
       <rdf:li>40, 35</rdf:li>
       <rdf:li>127, 127</rdf:li>
       <rdf:li>224, 230</rdf:li>
       <rdf:li>240, 246</rdf:li>
       <rdf:li>255, 255</rdf:li>
      </rdf:Seq>
     </crs:ToneCurvePV2012>
     <crs:ToneCurvePV2012Red>
      <rdf:Seq>
       <rdf:li>0, 0</rdf:li>
       <rdf:li>255, 255</rdf:li>
      </rdf:Seq>
     </crs:ToneCurvePV2012Red>
     <crs:ToneCurvePV2012Green>
      <rdf:Seq>
       <rdf:li>0, 0</rdf:li>
       <rdf:li>255, 255</rdf:li>
      </rdf:Seq>
     </crs:ToneCurvePV2012Green>
     <crs:ToneCurvePV2012Blue>
      <rdf:Seq>
       <rdf:li>0, 0</rdf:li>
       <rdf:li>255, 255</rdf:li>
      </rdf:Seq>
     </crs:ToneCurvePV2012Blue>
     <crs:PointColors>
      <rdf:Seq>
       <rdf:li>-1.000000, -1.000000, -1.000000, -1.000000, -1.000000, -1.000000, -1.000000, -1.000000, -1.000000, -1.000000, -1.000000, -1.000000, -1.000000, -1.000000, -1.000000, -1.000000, -1.000000, -1.000000, -1.000000</rdf:li>
      </rdf:Seq>
     </crs:PointColors>
     <crs:ColorVariance>
      <rdf:Seq>
       <rdf:li>-50.000000</rdf:li>
      </rdf:Seq>
     </crs:ColorVariance>
     </rdf:Description>
    </crs:Parameters>
    </rdf:Description>
   </crs:Look>
   <Iptc4xmpCore:CreatorContactInfo
    Iptc4xmpCore:CiEmailWork="julianbuccatphotography@gmail.com"
    Iptc4xmpCore:CiAdrCtry="USA"
    Iptc4xmpCore:CiUrlWork="https://buccatjulian.myportfolio.com"/>
   <Iptc4xmpCore:AltTextAccessibility>
    <rdf:Alt>
     <rdf:li xml:lang="x-default">High School Graduating student</rdf:li>
    </rdf:Alt>
   </Iptc4xmpCore:AltTextAccessibility>
  </rdf:Description>
 </rdf:RDF>
</x:xmpmeta>
