data/stage3/conditioned_state/lightroom_sidecars_postglobal_point_color/JB107468.xmp
<x:xmpmeta xmlns:x="adobe:ns:meta/" x:xmptk="Adobe XMP Core 7.0-c000 1.000000, 0000/00/00-00:00:00        ">
 <rdf:RDF xmlns:rdf="http://www.w3.org/1999/02/22-rdf-syntax-ns#">
  <rdf:Description rdf:about=""
    xmlns:tiff="http://ns.adobe.com/tiff/1.0/"
    xmlns:exif="http://ns.adobe.com/exif/1.0/"
    xmlns:xmp="http://ns.adobe.com/xap/1.0/"
    xmlns:aux="http://ns.adobe.com/exif/1.0/aux/"
    xmlns:exifEX="http://cipa.jp/exif/1.0/"
    xmlns:photoshop="http://ns.adobe.com/photoshop/1.0/"
    xmlns:xmpMM="http://ns.adobe.com/xap/1.0/mm/"
    xmlns:stEvt="http://ns.adobe.com/xap/1.0/sType/ResourceEvent#"
    xmlns:dc="http://purl.org/dc/elements/1.1/"
    xmlns:crd="http://ns.adobe.com/camera-raw-defaults/1.0/"
    xmlns:xmpRights="http://ns.adobe.com/xap/1.0/rights/"
    xmlns:xmpDM="http://ns.adobe.com/xmp/1.0/DynamicMedia/"
    xmlns:crs="http://ns.adobe.com/camera-raw-settings/1.0/"
    xmlns:Iptc4xmpCore="http://iptc.org/std/Iptc4xmpCore/1.0/xmlns/"
   tiff:Make="SONY"
   tiff:Model="ILCE-7RM3"
   tiff:Orientation="8"
   tiff:ImageWidth="7952"
   tiff:ImageLength="5304"
   exif:ExifVersion="0231"
   exif:ExposureTime="1/250"
   exif:ShutterSpeedValue="7965784/1000000"
   exif:FNumber="35/10"
   exif:ApertureValue="361471/100000"
   exif:ExposureProgram="1"
   exif:SensitivityType="2"
   exif:RecommendedExposureIndex="640"
   exif:BrightnessValue="13824/2560"
   exif:ExposureBiasValue="0/10"
   exif:MaxApertureValue="582/256"
   exif:MeteringMode="1"
   exif:LightSource="0"
   exif:FocalLength="510/10"
   exif:FileSource="3"
   exif:SceneType="1"
   exif:FocalLengthIn35mmFilm="51"
   exif:CustomRendered="0"
   exif:ExposureMode="1"
   exif:WhiteBalance="0"
   exif:SceneCaptureType="0"
   exif:Contrast="0"
   exif:Saturation="0"
   exif:Sharpness="0"
   exif:DigitalZoomRatio="16/16"
   exif:FocalPlaneXResolution="70924134/32768"
   exif:FocalPlaneYResolution="70924134/32768"
   exif:FocalPlaneResolutionUnit="3"
   exif:DateTimeOriginal="2024-12-15T16:24:34-08:00"
   exif:PixelXDimension="7952"
   exif:PixelYDimension="5304"
   xmp:CreatorTool="ILCE-7RM3 v3.10"
   xmp:ModifyDate="2024-12-15T16:24:34-08:00"
   xmp:CreateDate="2024-12-15T16:24:34-08:00"
   xmp:MetadataDate="2026-06-30T15:41:34-07:00"
   aux:LensInfo="350/10 1500/10 20/10 28/10"
   aux:Lens="E 35-150mm F2.0-F2.8 A058"
   aux:LensDistortInfo="1036349936/1073741824 25232308/1073741824 -25652/1073741824 12175280/1073741824"
   exifEX:LensModel="E 35-150mm F2.0-F2.8 A058"
   photoshop:DateCreated="2024-12-15T16:24:34-08:00"
   photoshop:AuthorsPosition="Photographer"
   photoshop:Credit="Photo © Julian Buccat"
   photoshop:SidecarForExtension="ARW"
   photoshop:EmbeddedXMPDigest="00000000000000000000000000000000"
   xmpMM:DocumentID="2424E5FC1D82352F7BC05439F8F0F255"
   xmpMM:PreservedFileName="JB107468.ARW"
   xmpMM:OriginalDocumentID="2424E5FC1D82352F7BC05439F8F0F255"
   xmpMM:InstanceID="xmp.iid:8061c761-7c12-43f8-b1b7-6eb705d46b74"
   dc:format="image/x-sony-arw"
   crd:CameraProfile="Camera Standard"
   crd:LookName=""
   xmpRights:Marked="True"
   xmpDM:pick="0"
   crs:Version="18.1"
   crs:CompatibleVersion="268435456"
   crs:ProcessVersion="15.4"
   crs:WhiteBalance="Custom"
   crs:Temperature="5250"
   crs:Tint="+9"
   crs:Exposure2012="-0.04"
   crs:Contrast2012="+6"
   crs:Highlights2012="-64"
   crs:Shadows2012="+51"
   crs:Whites2012="+5"
   crs:Blacks2012="-16"
   crs:Texture="0"
   crs:Clarity2012="0"
   crs:Dehaze="0"
   crs:Vibrance="+15"
   crs:Saturation="-1"
   crs:ParametricShadows="0"
   crs:ParametricDarks="0"
   crs:ParametricLights="0"
   crs:ParametricHighlights="0"
   crs:ParametricShadowSplit="25"
   crs:ParametricMidtoneSplit="50"
   crs:ParametricHighlightSplit="75"
   crs:Sharpness="40"
   crs:SharpenRadius="+1.0"
   crs:SharpenDetail="25"
   crs:SharpenEdgeMasking="0"
   crs:LuminanceSmoothing="0"
   crs:ColorNoiseReduction="25"
   crs:ColorNoiseReductionDetail="50"
   crs:ColorNoiseReductionSmoothness="50"
   crs:HueAdjustmentRed="0"
   crs:HueAdjustmentOrange="0"
   crs:HueAdjustmentYellow="0"
   crs:HueAdjustmentGreen="0"
   crs:HueAdjustmentAqua="0"
   crs:HueAdjustmentBlue="0"
   crs:HueAdjustmentPurple="0"
   crs:HueAdjustmentMagenta="0"
   crs:SaturationAdjustmentRed="0"
   crs:SaturationAdjustmentOrange="0"
   crs:SaturationAdjustmentYellow="-38"
   crs:SaturationAdjustmentGreen="-41"
   crs:SaturationAdjustmentAqua="0"
   crs:SaturationAdjustmentBlue="0"
   crs:SaturationAdjustmentPurple="0"
   crs:SaturationAdjustmentMagenta="0"
   crs:LuminanceAdjustmentRed="0"
   crs:LuminanceAdjustmentOrange="0"
   crs:LuminanceAdjustmentYellow="0"
   crs:LuminanceAdjustmentGreen="0"
   crs:LuminanceAdjustmentAqua="0"
   crs:LuminanceAdjustmentBlue="0"
   crs:LuminanceAdjustmentPurple="0"
   crs:LuminanceAdjustmentMagenta="0"
   crs:SplitToningShadowHue="0"
   crs:SplitToningShadowSaturation="0"
   crs:SplitToningHighlightHue="0"
   crs:SplitToningHighlightSaturation="0"
   crs:SplitToningBalance="0"
   crs:ColorGradeMidtoneHue="0"
   crs:ColorGradeMidtoneSat="0"
   crs:ColorGradeShadowLum="0"
   crs:ColorGradeMidtoneLum="0"
   crs:ColorGradeHighlightLum="0"
   crs:ColorGradeBlending="50"
   crs:ColorGradeGlobalHue="0"
   crs:ColorGradeGlobalSat="0"
   crs:ColorGradeGlobalLum="0"
   crs:AutoLateralCA="0"
   crs:LensProfileEnable="1"
   crs:LensManualDistortionAmount="0"
   crs:VignetteAmount="0"
   crs:DefringePurpleAmount="0"
   crs:DefringePurpleHueLo="30"
   crs:DefringePurpleHueHi="70"
   crs:DefringeGreenAmount="0"
   crs:DefringeGreenHueLo="40"
   crs:DefringeGreenHueHi="60"
   crs:PerspectiveUpright="0"
   crs:PerspectiveVertical="0"
   crs:PerspectiveHorizontal="0"
   crs:PerspectiveRotate="0.0"
   crs:PerspectiveAspect="0"
   crs:PerspectiveScale="100"
   crs:PerspectiveX="0.00"
   crs:PerspectiveY="0.00"
   crs:GrainAmount="0"
   crs:PostCropVignetteAmount="0"
   crs:ShadowTint="0"
   crs:RedHue="0"
   crs:RedSaturation="0"
   crs:GreenHue="0"
   crs:GreenSaturation="0"
   crs:BlueHue="0"
   crs:BlueSaturation="0"
   crs:HDREditMode="0"
   crs:OverrideLookVignette="False"
   crs:ToneCurveName2012="Linear"
   crs:CameraProfile="Adobe Standard"
   crs:CameraProfileDigest="5487194BEED499508DB3EF5E70573EB9"
   crs:LensProfileSetup="LensDefaults"
   crs:LensProfileName="Adobe (TAMRON 35-150mm F2-2.8 Di III VXD A058)"
   crs:LensProfileFilename="SONY (TAMRON 35-150mm F2-2.8 Di III VXD A058) - RAW.lcp"
   crs:LensProfileDigest="9101701948B53303FC4FDA54CE983A29"
   crs:LensProfileIsEmbedded="False"
   crs:LensProfileDistortionScale="100"
   crs:LensProfileVignettingScale="100"
   crs:AutoToneDigest="A6BE486204742449718D0EF1960512A2"
   crs:AutoToneDigestNoSat="3166D7DA11AB5386809251BABE0CAA63"
   crs:HasSettings="True"
   crs:CropTop="0.024972"
   crs:CropLeft="0.000001"
   crs:CropBottom="0.962631"
   crs:CropRight="0.93766"
   crs:CropAngle="0"
   crs:CropConstrainToWarp="0"
   crs:CropConstrainToUnitSquare="1"
   crs:HasCrop="True"
   crs:AlreadyApplied="False"
   crs:RawFileName="JB107468.ARW">
   <exif:ISOSpeedRatings>
    <rdf:Seq>
     <rdf:li>640</rdf:li>
    </rdf:Seq>
   </exif:ISOSpeedRatings>
   <exif:Flash
    exif:Fired="False"
    exif:Return="0"
    exif:Mode="2"
    exif:Function="False"
    exif:RedEyeMode="False"/>
   <xmpMM:History>
    <rdf:Seq>
     <rdf:li
      stEvt:action="saved"
      stEvt:instanceID="xmp.iid:8061c761-7c12-43f8-b1b7-6eb705d46b74"
      stEvt:when="2026-06-30T15:41:34-07:00"
      stEvt:softwareAgent="Adobe Photoshop Lightroom Classic 15.1 (Macintosh)"
      stEvt:changed="/metadata"/>
    </rdf:Seq>
   </xmpMM:History>
   <dc:creator>
    <rdf:Seq>
     <rdf:li>Julian Buccat</rdf:li>
    </rdf:Seq>
   </dc:creator>
   <dc:rights>
    <rdf:Alt>
     <rdf:li xml:lang="x-default">© 2026 Julian Buccat. All Rights.</rdf:li>
    </rdf:Alt>
   </dc:rights>
   <xmpRights:UsageTerms>
    <rdf:Alt>
     <rdf:li xml:lang="x-default">All rights reserved unless otherwise licensed. </rdf:li>
    </rdf:Alt>
   </xmpRights:UsageTerms>
   <crs:ToneCurvePV2012>
    <rdf:Seq>
     <rdf:li>0, 0</rdf:li>
     <rdf:li>255, 255</rdf:li>
    </rdf:Seq>
   </crs:ToneCurvePV2012>
   <crs:ToneCurvePV2012Red>
    <rdf:Seq>
     <rdf:li>0, 0</rdf:li>
     <rdf:li>255, 255</rdf:li>
    </rdf:Seq>
   </crs:ToneCurvePV2012Red>
   <crs:ToneCurvePV2012Green>
    <rdf:Seq>
     <rdf:li>0, 0</rdf:li>
     <rdf:li>255, 255</rdf:li>
    </rdf:Seq>
   </crs:ToneCurvePV2012Green>
   <crs:ToneCurvePV2012Blue>
    <rdf:Seq>
     <rdf:li>0, 0</rdf:li>
     <rdf:li>255, 255</rdf:li>
    </rdf:Seq>
   </crs:ToneCurvePV2012Blue>
   <crs:PointColors>
    <rdf:Seq>
     <rdf:li>0.481367, 0.781341, 0.048290, 0.000000, -0.250000, 0.000000, 0.500000, 0.000000, 0.330000, 0.670000, 1.000000, 0.050000, 0.600000, 0.960000, 1.000000, 0.000000, 0.060000, 0.420000, 0.970000</rdf:li>
    </rdf:Seq>
   </crs:PointColors>
   <crs:ColorVariance>
    <rdf:Seq>
     <rdf:li>0.000000</rdf:li>
    </rdf:Seq>
   </crs:ColorVariance>
   <crs:MaskGroupBasedCorrections>
    <rdf:Seq>
     <rdf:li>
      <rdf:Description
       crs:What="Correction"
       crs:CorrectionAmount="1"
       crs:CorrectionActive="true"
       crs:CorrectionName="Mask 1"
       crs:CorrectionSyncID="365FC08EAD254EA59B7B36B59804C54D"
       crs:LocalExposure="0"
       crs:LocalHue="0"
       crs:LocalSaturation="0"
       crs:LocalContrast="0"
       crs:LocalClarity="0"
       crs:LocalSharpness="0"
       crs:LocalBrightness="0"
       crs:LocalToningHue="173.945007"
       crs:LocalToningSaturation="0"
       crs:LocalExposure2012="0"
       crs:LocalContrast2012="0"
       crs:LocalHighlights2012="0"
       crs:LocalShadows2012="0"
       crs:LocalWhites2012="0"
       crs:LocalBlacks2012="0"
       crs:LocalClarity2012="0"
       crs:LocalDehaze="0"
       crs:LocalLuminanceNoise="0"
       crs:LocalMoire="0"
       crs:LocalDefringe="0"
       crs:LocalTemperature="0"
       crs:LocalTint="0"
       crs:LocalTexture="0.01"
       crs:LocalGrain="0"
       crs:LocalCurveRefineSaturation="100">
      <crs:CorrectionMasks>
       <rdf:Seq>
        <rdf:li
         crs:What="Mask/Image"
         crs:MaskActive="true"
         crs:MaskName="Person 1"
         crs:MaskBlendMode="0"
         crs:MaskInverted="false"
         crs:MaskSyncID="D784D255908443549EFE3A62C182B80B"
         crs:MaskValue="1"
         crs:MaskVersion="1"
         crs:MaskSubType="0"
         crs:MaskSubCategoryID="20036"
         crs:ReferencePoint="0.357200 0.499308"
         crs:InputDigest="C581ACE40A9F9977C0BD92E8158B54C9"
         crs:InputDigestVersion="2"
         crs:LocalInputDigest="0F69EC7191721A5DAEB9846B118CC3B4"
         crs:LocalInputDigestVersion="1"
         crs:MaskDigest="28FA65D40F0D5BBF6DDF5C0C9F27EA05"
         crs:WholeImageArea="0/1,0/1,1920/1,2879/1"
         crs:Origin="0,462"
         crs:FullMaskSize="2879,1920"
         crs:ModelVersion="234881976"/>
       </rdf:Seq>
      </crs:CorrectionMasks>
      </rdf:Description>
     </rdf:li>
     <rdf:li>
      <rdf:Description
       crs:What="Correction"
       crs:CorrectionAmount="1"
       crs:CorrectionActive="true"
       crs:CorrectionName="Mask 2"
       crs:CorrectionSyncID="851EBD3FC5A4440696D472C3AEF5BD3B"
       crs:LocalExposure="0"
       crs:LocalHue="0"
       crs:LocalSaturation="0"
       crs:LocalContrast="0"
       crs:LocalClarity="0"
       crs:LocalSharpness="0"
       crs:LocalBrightness="0"
       crs:LocalToningHue="173.945007"
       crs:LocalToningSaturation="0"
       crs:LocalExposure2012="0"
       crs:LocalContrast2012="0"
       crs:LocalHighlights2012="-0.39"
       crs:LocalShadows2012="0.25"
       crs:LocalWhites2012="0"
       crs:LocalBlacks2012="0"
       crs:LocalClarity2012="0"
       crs:LocalDehaze="0"
       crs:LocalLuminanceNoise="0"
       crs:LocalMoire="0"
       crs:LocalDefringe="0"
       crs:LocalTemperature="0"
       crs:LocalTint="0"
       crs:LocalTexture="0.01"
       crs:LocalGrain="0"
       crs:LocalCurveRefineSaturation="100">
      <crs:CorrectionMasks>
       <rdf:Seq>
        <rdf:li
         crs:What="Mask/Image"
         crs:MaskActive="true"
         crs:MaskName="Background 1"
         crs:MaskBlendMode="0"
         crs:MaskInverted="false"
         crs:MaskSyncID="CAEFE61A5B794CABA2B921C939E7BA2C"
         crs:MaskValue="1"
         crs:MaskVersion="1"
         crs:MaskSubType="0"
         crs:MaskSubCategoryID="22"
         crs:ReferencePoint="0.753646 0.724993"
         crs:InputDigest="C581ACE40A9F9977C0BD92E8158B54C9"
         crs:InputDigestVersion="2"
         crs:MaskDigest="91E36DA095D908E71631C7DC66C8AA10"
         crs:WholeImageArea="0/1073741824,0/1073741824,62914560/32768,94339072/32768"
         crs:Origin="0,0"
         crs:FullMaskSize="2879,1920"
         crs:ModelVersion="251659306"/>
       </rdf:Seq>
      </crs:CorrectionMasks>
      </rdf:Description>
     </rdf:li>
     <rdf:li>
      <rdf:Description
       crs:What="Correction"
       crs:CorrectionAmount="1"
       crs:CorrectionActive="true"
       crs:CorrectionName="Mask 3"
       crs:CorrectionSyncID="484A6CB346C1406FABD933990077F786"
       crs:LocalExposure="0"
       crs:LocalHue="0"
       crs:LocalSaturation="0"
       crs:LocalContrast="0"
       crs:LocalClarity="0"
       crs:LocalSharpness="0"
       crs:LocalBrightness="0"
       crs:LocalToningHue="173.945007"
       crs:LocalToningSaturation="0"
       crs:LocalExposure2012="0"
       crs:LocalContrast2012="0"
       crs:LocalHighlights2012="0"
       crs:LocalShadows2012="0"
       crs:LocalWhites2012="0"
       crs:LocalBlacks2012="0"
       crs:LocalClarity2012="0"
       crs:LocalDehaze="0"
       crs:LocalLuminanceNoise="0"
       crs:LocalMoire="0"
       crs:LocalDefringe="0"
       crs:LocalTemperature="0"
       crs:LocalTint="0"
       crs:LocalTexture="0.01"
       crs:LocalGrain="0"
       crs:LocalCurveRefineSaturation="100">
      <crs:CorrectionMasks>
       <rdf:Seq>
        <rdf:li
         crs:What="Mask/Image"
         crs:MaskActive="true"
         crs:MaskName="Person 1 - Clothes"
         crs:MaskBlendMode="0"
         crs:MaskInverted="false"
         crs:MaskSyncID="BBFBF9C95DA54B109A580C8644C279F9"
         crs:MaskValue="1"
         crs:MaskVersion="1"
         crs:MaskSubType="0"
         crs:MaskSubCategoryID="11"
         crs:ReferencePoint="0.219934 0.446226"
         crs:InputDigest="C581ACE40A9F9977C0BD92E8158B54C9"
         crs:InputDigestVersion="2"
         crs:LocalInputDigest="0F69EC7191721A5DAEB9846B118CC3B4"
         crs:LocalInputDigestVersion="1"
         crs:MaskDigest="777851FE824A73F9B8384EEF397CE0E8"
         crs:WholeImageArea="0/1,0/1,1920/1,2879/1"
         crs:Origin="0,457"
         crs:FullMaskSize="2879,1920"
         crs:ModelVersion="234881976"/>
       </rdf:Seq>
      </crs:CorrectionMasks>
      </rdf:Description>
     </rdf:li>
     <rdf:li>
      <rdf:Description
       crs:What="Correction"
       crs:CorrectionAmount="1"
       crs:CorrectionActive="true"
       crs:CorrectionName="Mask 4"
       crs:CorrectionSyncID="05D4854D165E4729A16D871D63276E37"
       crs:LocalExposure="0"
       crs:LocalHue="0"
       crs:LocalSaturation="0"
       crs:LocalContrast="0"
       crs:LocalClarity="0"
       crs:LocalSharpness="0"
       crs:LocalBrightness="0"
       crs:LocalToningHue="173.945007"
       crs:LocalToningSaturation="0"
       crs:LocalExposure2012="0"
       crs:LocalContrast2012="0"
       crs:LocalHighlights2012="0"
       crs:LocalShadows2012="0.13"
       crs:LocalWhites2012="0"
       crs:LocalBlacks2012="0"
       crs:LocalClarity2012="0"
       crs:LocalDehaze="0"
       crs:LocalLuminanceNoise="0"
       crs:LocalMoire="0"
       crs:LocalDefringe="0"
       crs:LocalTemperature="0"
       crs:LocalTint="0"
       crs:LocalTexture="0.01"
       crs:LocalGrain="0"
       crs:LocalCurveRefineSaturation="100">
      <crs:CorrectionMasks>
       <rdf:Seq>
        <rdf:li
         crs:What="Mask/Image"
         crs:MaskActive="true"
         crs:MaskName="Person 1 - Body Skin"
         crs:MaskBlendMode="0"
         crs:MaskInverted="false"
         crs:MaskSyncID="ECE0C615957A4E6D8F5CF240421D4F4E"
         crs:MaskValue="1"
         crs:MaskVersion="1"
         crs:MaskSubType="0"
         crs:MaskSubCategoryID="4"
         crs:ReferencePoint="0.325299 0.478168"
         crs:InputDigest="C581ACE40A9F9977C0BD92E8158B54C9"
         crs:InputDigestVersion="2"
         crs:LocalInputDigest="0F69EC7191721A5DAEB9846B118CC3B4"
         crs:LocalInputDigestVersion="1"
         crs:MaskDigest="F3406409876B25F3A2BECB53884BF0EB"
         crs:WholeImageArea="0/1,0/1,1920/1,2879/1"
         crs:Origin="801,706"
         crs:FullMaskSize="2879,1920"
         crs:ModelVersion="234881976"/>
       </rdf:Seq>
      </crs:CorrectionMasks>
      </rdf:Description>
     </rdf:li>
     <rdf:li>
      <rdf:Description
       crs:What="Correction"
       crs:CorrectionAmount="1"
       crs:CorrectionActive="true"
       crs:CorrectionName="Mask 5"
       crs:CorrectionSyncID="42A23F92EECB4715A592806E768345DF"
       crs:LocalExposure="0"
       crs:LocalHue="0"
       crs:LocalSaturation="0"
       crs:LocalContrast="0"
       crs:LocalClarity="0"
       crs:LocalSharpness="0"
       crs:LocalBrightness="0"
       crs:LocalToningHue="173.945007"
       crs:LocalToningSaturation="0"
       crs:LocalExposure2012="0"
       crs:LocalContrast2012="0"
       crs:LocalHighlights2012="0.11"
       crs:LocalShadows2012="0.51"
       crs:LocalWhites2012="0"
       crs:LocalBlacks2012="0"
       crs:LocalClarity2012="0"
       crs:LocalDehaze="0"
       crs:LocalLuminanceNoise="0"
       crs:LocalMoire="0"
       crs:LocalDefringe="0"
       crs:LocalTemperature="0"
       crs:LocalTint="0"
       crs:LocalTexture="0.01"
       crs:LocalGrain="0"
       crs:LocalCurveRefineSaturation="100">
      <crs:CorrectionMasks>
       <rdf:Seq>
        <rdf:li
         crs:What="Mask/Image"
         crs:MaskActive="true"
         crs:MaskName="Person 1 - Facial Skin"
         crs:MaskBlendMode="0"
         crs:MaskInverted="false"
         crs:MaskSyncID="48A9280393504303B9E2C77F8B4BDEE1"
         crs:MaskValue="1"
         crs:MaskVersion="1"
         crs:MaskSubType="0"
         crs:MaskSubCategoryID="2"
         crs:ReferencePoint="0.658795 0.496667"
         crs:InputDigest="C581ACE40A9F9977C0BD92E8158B54C9"
         crs:InputDigestVersion="2"
         crs:LocalInputDigest="0F69EC7191721A5DAEB9846B118CC3B4"
         crs:LocalInputDigestVersion="1"
         crs:MaskDigest="8B908EE5C1CFAC0508E9E3C113312B4E"
         crs:WholeImageArea="0/1,0/1,1920/1,2879/1"
         crs:Origin="1623,775"
         crs:FullMaskSize="2879,1920"
         crs:ModelVersion="234881976"/>
       </rdf:Seq>
      </crs:CorrectionMasks>
      </rdf:Description>
     </rdf:li>
     <rdf:li>
      <rdf:Description
       crs:What="Correction"
       crs:CorrectionAmount="1"
       crs:CorrectionActive="true"
       crs:CorrectionName="Mask 6"
       crs:CorrectionSyncID="AE937AF217644B6CB2D4F5AEDA592E11"
       crs:LocalExposure="0"
       crs:LocalHue="0"
       crs:LocalSaturation="-0.71"
       crs:LocalContrast="0"
       crs:LocalClarity="0"
       crs:LocalSharpness="0"
       crs:LocalBrightness="0"
       crs:LocalToningHue="173.945007"
       crs:LocalToningSaturation="0"
       crs:LocalExposure2012="0"
       crs:LocalContrast2012="0"
       crs:LocalHighlights2012="0"
       crs:LocalShadows2012="0"
       crs:LocalWhites2012="0"
       crs:LocalBlacks2012="0"
       crs:LocalClarity2012="0"
       crs:LocalDehaze="0"
       crs:LocalLuminanceNoise="0"
       crs:LocalMoire="0"
       crs:LocalDefringe="0"
       crs:LocalTemperature="0"
       crs:LocalTint="0"
       crs:LocalTexture="0.01"
       crs:LocalGrain="0"
       crs:LocalCurveRefineSaturation="100">
      <crs:CorrectionMasks>
       <rdf:Seq>
        <rdf:li
         crs:What="Mask/Image"
         crs:MaskActive="true"
         crs:MaskName="Person 1 - Teeth"
         crs:MaskBlendMode="0"
         crs:MaskInverted="false"
         crs:MaskSyncID="99BEAB389EDD4930A611668CB75E8312"
         crs:MaskValue="1"
         crs:MaskVersion="1"
         crs:MaskSubType="0"
         crs:MaskSubCategoryID="12"
         crs:ReferencePoint="0.596929 0.504583"
         crs:InputDigest="C581ACE40A9F9977C0BD92E8158B54C9"
         crs:InputDigestVersion="2"
         crs:LocalInputDigest="0F69EC7191721A5DAEB9846B118CC3B4"
         crs:LocalInputDigestVersion="1"
         crs:MaskDigest="F4A4F235B710CBC1BDDC6649CAE5D6CF"
         crs:WholeImageArea="0/1,0/1,1920/1,2879/1"
         crs:Origin="1707,934"
         crs:FullMaskSize="2879,1920"
         crs:ModelVersion="234881976"/>
        <rdf:li
         crs:What="Mask/Image"
         crs:MaskActive="true"
         crs:MaskName="Person 1 - Eye Sclera"
         crs:MaskBlendMode="0"
         crs:MaskInverted="false"
         crs:MaskSyncID="FF391CA859A14155BBF2D728B637144F"
         crs:MaskValue="1"
         crs:MaskVersion="1"
         crs:MaskSubType="0"
         crs:MaskSubCategoryID="8"
         crs:ReferencePoint="0.632251 0.515143"
         crs:InputDigest="C581ACE40A9F9977C0BD92E8158B54C9"
         crs:InputDigestVersion="2"
         crs:LocalInputDigest="0F69EC7191721A5DAEB9846B118CC3B4"
         crs:LocalInputDigestVersion="1"
         crs:MaskDigest="276B33351210208FF874F8CCDA3010D0"
         crs:WholeImageArea="0/1,0/1,1920/1,2879/1"
         crs:Origin="1809,879"
         crs:FullMaskSize="2879,1920"
         crs:ModelVersion="234881976"/>
       </rdf:Seq>
      </crs:CorrectionMasks>
      </rdf:Description>
     </rdf:li>
    </rdf:Seq>
   </crs:MaskGroupBasedCorrections>
   <crs:Look>
    <rdf:Description
     crs:Name="Adobe Color"
     crs:Amount="1"
     crs:UUID="B952C231111CD8E0ECCF14B86BAA7077"
     crs:SupportsAmount="false"
     crs:SupportsMonochrome="false"
     crs:SupportsOutputReferred="false"
     crs:Copyright="© 2018 Adobe Systems, Inc.">
    <crs:Group>
     <rdf:Alt>
      <rdf:li xml:lang="x-default">Profiles</rdf:li>
     </rdf:Alt>
    </crs:Group>
    <crs:Parameters>
     <rdf:Description
      crs:Version="18.1"
      crs:ProcessVersion="15.4"
      crs:ConvertToGrayscale="False"
      crs:CameraProfile="Adobe Standard"
      crs:LookTable="E1095149FDB39D7A057BAB208837E2E1">
     <crs:ToneCurvePV2012>
      <rdf:Seq>
       <rdf:li>0, 0</rdf:li>
       <rdf:li>22, 16</rdf:li>
       <rdf:li>40, 35</rdf:li>
       <rdf:li>127, 127</rdf:li>
       <rdf:li>224, 230</rdf:li>
       <rdf:li>240, 246</rdf:li>
       <rdf:li>255, 255</rdf:li>
      </rdf:Seq>
     </crs:ToneCurvePV2012>
     <crs:ToneCurvePV2012Red>
      <rdf:Seq>
       <rdf:li>0, 0</rdf:li>
       <rdf:li>255, 255</rdf:li>
      </rdf:Seq>
     </crs:ToneCurvePV2012Red>
     <crs:ToneCurvePV2012Green>
      <rdf:Seq>
       <rdf:li>0, 0</rdf:li>
       <rdf:li>255, 255</rdf:li>
      </rdf:Seq>
     </crs:ToneCurvePV2012Green>
     <crs:ToneCurvePV2012Blue>
      <rdf:Seq>
       <rdf:li>0, 0</rdf:li>
       <rdf:li>255, 255</rdf:li>
      </rdf:Seq>
     </crs:ToneCurvePV2012Blue>
     <crs:PointColors>
      <rdf:Seq>
       <rdf:li>-1.000000, -1.000000, -1.000000, -1.000000, -1.000000, -1.000000, -1.000000, -1.000000, -1.000000, -1.000000, -1.000000, -1.000000, -1.000000, -1.000000, -1.000000, -1.000000, -1.000000, -1.000000, -1.000000</rdf:li>
      </rdf:Seq>
     </crs:PointColors>
     <crs:ColorVariance>
      <rdf:Seq>
       <rdf:li>-50.000000</rdf:li>
      </rdf:Seq>
     </crs:ColorVariance>
     </rdf:Description>
    </crs:Parameters>
    </rdf:Description>
   </crs:Look>
   <Iptc4xmpCore:CreatorContactInfo
    Iptc4xmpCore:CiEmailWork="julianbuccatphotography@gmail.com"
    Iptc4xmpCore:CiAdrCtry="USA"
    Iptc4xmpCore:CiUrlWork="https://buccatjulian.myportfolio.com"/>
  </rdf:Description>
 </rdf:RDF>
</x:xmpmeta>
